X:1
T:Title
%%score 1 2 3
L:1/8
M:3/2
K:C
V:1 treble nm="Part_1"
V:2 treble-8 nm="Part_2"
V:3 bass nm="Part_3"
V:1
 z4 z4 D4 | D4 C4 D2 E2 | F2 G2 D2 E2 ^C2 B,2 | D4 z4 C3 D | F2 G4 F2 E2 D2 | F4 z4 F4 | %6
 F6 F2 F3 E | G6 F2 E4 | F6 E2 D2 C2 | E2 F2 E2 D2 ^C2 B,2 | D8 z4 | C4 D4 F4 | F6 E2 D4 | %13
 D3 E F6 E2 | D2 CD E2 D2 C3 B, | D2 z2 C6 B,2 | D6 E2 F4- | F2 D2 E2 F2 E2 D2 | C2 D4 C2 B,2 A,2 | %19
 C4 z4 D4 | F6 E2 F4 | G6 F2 E4 | D4 D2 z2 D2 E2 | F4 G4 F4 | E2 G4 F2 F2 E2 | D2 C2 E2 F2 E2 D2 | %26
 D4 C4 D2 B,2 | ^C12 | D12 || F4 D4 C4 | D2 E2 F4 E2 G2- | G2 F2 D6 E2 |[M:4/8] ^C2 B,2 | %33
[M:3/2] D12 || z4 z4 D4 | F4 F4 F4 | F8 F4 | F6 F2 G4 | F2 E2 D4 F4 | E2 D2 C3 D F3 E | D4 ^C8 | %41
 D12 || z4 z4 D4 | F4 F4 F4 | F4 F4 F2 F2 | F4 F4 E4 | F4 G4 G4 | F4 G2 _B2 A2 F2 | %48
 G2 A4 F2 E2 D2 | F4 z4 D4 | F4 F6 F2 | F4 F4 G4 | F6 D2 F4 | E6 C2 D4 | E2 F2 E2 D2 ^C4 | D12 |] %56
V:2
 z4 z4 D4 | F4 E4 D2 C2 | D2 E2 F2 G2 E4 | D4 A8 | A4 _B4 G4 | F8 D4 | A6 A2 A4 | _B6 A2 G4 | %8
 F2 E2 D6 C2 | G6 F2 E4 | D12 | A4 G4 D4 | D6 C2 G4- | G2 F2 D6 E2 | F4 G4 E4 | D4 E8 | D8 D4 | %17
 A8 G2 F2 | E4 F4 D4 | C4 G8 | A6 G2 F4 | E6 D2 C4 | D4 D4 G4 | A4 E4 D4 | G8 A2 G2 | %25
 F2 E4 D2 C2 D2 | F4 E6 D2 | E12 | D12 || D4 G4 A4 | F4 D4 C4 | E4 G4 F4 |[M:4/8] E4 | %33
[M:3/2] D12 || z4 z4 D4 | A4 A4 A4 | F8 F4 | A6 A2 G4 | A2 G2 F4 F4 | G2 F2 E2 F4 G2 | F4 E8 | %41
 D12 || z4 z4 D4 | A4 A4 F4 | F4 A4 A2 A2 | A4 F4 G4 | A4 G4 _B4 | A4 _B4 c2 A2 | _B2 c2 A4 G4 | %49
 F4 z4 F4 | F4 A6 A2 | A4 F4 B4 | A6 G2 F4 | G4 E4 F4 | G2 A4 F2 E4 | D12 |] %56
V:3
 z4 z4 A,4 | A,4 G,4 F,2 E,2 | D,2 C,2 D,2 z2 A,,4 | B,,4 A,,8 | A,,4 z4 C,4 | D,4 A,8 | D,12 | %7
 G,4 z4 C,4 | D,2 E,2 F,6 E,2 | C,4 z2 D,2 A,,4 | A,12 | A,,4 z4 A,4 | A,4 z4 z4 | G,4 A,6 G,2 | %14
 D,4 C,4 G,4 | A,4 A,,8 | A,12 | A,,8 z4 | G,4 A,4 F,4 | G,4 E,4 z4 | D,6 E,2 D,4 | C,6 D,2 E,4 | %22
 F,4 A,4 z4 | D,4 C,4 F,4 | C,6 _B,,2 A,,4 | z4 z4 E,2 F,2 | D,4 A,,4 A,,2 A,,2 | A,,12 | A,12 || %29
 z12 | z12 | z12 |[M:4/8] z4 |[M:3/2] z12 || z12 | z12 | z12 | z12 | z12 | z12 | z12 | z12 || z12 | %43
 z12 | z12 | z12 | z12 | z12 | z12 | z12 | z12 | z12 | z12 | z12 | z12 | z12 |] %56

